WindowsPhone/svg/appbar.download.svg

<?xml version="1.0" encoding="UTF-8" standalone="no"?>
<svg
   xmlns:dc="http://purl.org/dc/elements/1.1/"
   xmlns:cc="http://creativecommons.org/ns#"
   xmlns:rdf="http://www.w3.org/1999/02/22-rdf-syntax-ns#"
   xmlns:svg="http://www.w3.org/2000/svg"
   xmlns="http://www.w3.org/2000/svg"
   xmlns:sodipodi="http://sodipodi.sourceforge.net/DTD/sodipodi-0.dtd"
   xmlns:inkscape="http://www.inkscape.org/namespaces/inkscape"
   version="1.1"
   width="76"
   height="76"
   viewBox="0 0 76.00 76.00"
   enable-background="new 0 0 76.00 76.00"
   xml:space="preserve"
   id="svg2"
   inkscape:version="0.91 r13725"
   sodipodi:docname="appbar.download.svg"><metadata
     id="metadata10"><rdf:RDF><cc:Work
         rdf:about=""><dc:format>image/svg+xml</dc:format><dc:type
           rdf:resource="http://purl.org/dc/dcmitype/StillImage" /></cc:Work></rdf:RDF></metadata><defs
     id="defs8" /><sodipodi:namedview
     pagecolor="#ffffff"
     bordercolor="#666666"
     borderopacity="1"
     objecttolerance="10"
     gridtolerance="10"
     guidetolerance="10"
     inkscape:pageopacity="0"
     inkscape:pageshadow="2"
     inkscape:window-width="1109"
     inkscape:window-height="731"
     id="namedview6"
     showgrid="false"
     inkscape:zoom="4.8721382"
     inkscape:cx="37.822226"
     inkscape:cy="39.498159"
     inkscape:window-x="883"
     inkscape:window-y="156"
     inkscape:window-maximized="0"
     inkscape:current-layer="layer3" /><g
     inkscape:groupmode="layer"
     id="layer1"
     inkscape:label="active"
     style="display:none"><path
       style="fill:#000000;fill-opacity:1;stroke-width:0.2;stroke-linejoin:round"
       d="m 25,52 26,0 0,5 -26,0 0,-5 z m 10,-36 6,0 0,20.5 8,-9.5 0,9.5 L 38,49 27,36.5 27,27 35,36.5 35,16 Z"
       id="path4"
       inkscape:connector-curvature="0" /></g><g
     inkscape:groupmode="layer"
     id="layer2"
     inkscape:label="inactive"
     style="display:none"><path
       inkscape:connector-curvature="0"
       id="path3340"
       d="m 25,52 26,0 0,5 -26,0 0,-5 z m 10,-36 6,0 0,20.5 8,-9.5 0,9.5 L 38,49 27,36.5 27,27 35,36.5 35,16 Z"
       style="display:inline;fill:#9b9b9b;fill-opacity:1;stroke-width:0.2;stroke-linejoin:round" /></g><g
     inkscape:groupmode="layer"
     id="layer3"
     inkscape:label="pressed"><path
       style="display:inline;fill:#ffffff;fill-opacity:1;stroke-width:0.2;stroke-linejoin:round"
       d="m 25,52 26,0 0,5 -26,0 0,-5 z m 10,-36 6,0 0,20.5 8,-9.5 0,9.5 L 38,49 27,36.5 27,27 35,36.5 35,16 Z"
       id="path4144"
       inkscape:connector-curvature="0" /></g></svg>

﻿<?xml version="1.0" encoding="utf-8"?>
<!DOCTYPE svg PUBLIC "-//W3C//DTD SVG 1.1//EN" "http://www.w3.org/Graphics/SVG/1.1/DTD/svg11.dtd">
<svg xmlns="http://www.w3.org/2000/svg" xmlns:xlink="http://www.w3.org/1999/xlink" version="1.1" baseProfile="full" width="76" height="76" viewBox="0 0 76.00 76.00" enable-background="new 0 0 76.00 76.00" xml:space="preserve">
	<path fill="#000000" fill-opacity="1" stroke-width="0.2" stroke-linejoin="round" d="M 25,52L 51,52L 51,57L 25,57L 25,52 Z M 35,16L 41,16L 41,36.5L 49,27L 49,36.5L 38,49L 27,36.5L 27,27L 35,36.5L 35,16 Z "/>
</svg>
